X:1
T:Da quel foco
T:Giammateo Asola
T:Source : Madrigali a due voci---Venetia ---G.Vincenti---1587. Editor : André Vierendeels (18/04/17).
T:Notes : Original clefs : C1, C1 Editorial accidentals above the staff "Fuga di un tempo all'unisono"
T:Da quel foco
T:©
T:©
T:©
C:Giammateo Asola
Z:©
%%score [ 1 2 ]
L:1/8
Q:1/4=120
M:2/2
K:C
V:1 treble nm="Soprano 1" snm="S 1"
V:2 treble nm="Soprano 2" snm="S 2"
V:1
 A8 | F4 D4 | F6 G2 | A4 B4 | A2 G2 F2 E2 | D4 d4- | d2 cB c4 | d4 G4 | A4 A4 | D4 E4 | F4 A4- | %11
w: Da|quel fo-|co ch'ac-|cen- *||||de, in|ciel le|pi- re-|men- *|
 A4 G4 | A8 | z4 B4 | c4 A4 | c4 d4 | e2 d2 c2 B2 | A2 G2 F4 | E8 | z4 A4 | A4 G4 | F8 | E8 | %23
w: |ti,|u-|na di-|vi- na|fiam- * * *||ma|in|noi di-|scen-|de,|
 z4 A4 | c4 B4 | A2 D2 F4 | E2 A2 ^G4 | A4 z2 A2 | c2 c2 B4 | A4 D4 | E2 C2 D2 E2 | F3 G A4 | %32
w: ch'i|cor ge-|la- ti'e spen-|ti, in- cen-|de or-|na'e ris- chie-|ra, per|cui si- cu- ra'e|chia- * *|
 G4 B4 | A2 A2 c4 | B4 d4 | c3 d e4 | d4 z2 G2 | A2 A2 E3 F | G4 D2 d2 | c2 A2 c4 | B2 G2 A2 D2 | %41
w: ra, ap-|par la vi-|a ch'ad-|du- * *|ce, con|som- ma gio- *|* ia, con|som- ma gio-|ia, con som- ma|
 F4 E4 | z4 A4 | A4 B4 | c2 A2 e3 d/c/ | d4 e4 | c4 A4 | B4 c2 B2 | A2 G2 F2 E2 | D4 C4 | c6 BA | %51
w: gio- ia,|ov'|è l'e-|ter- na lu- * *|* ce,|ov' è|l'e- ter- *||* na|lu- * *|
 B4 c4 | A4 A4 | G4 A4 | c8 | B6 A2 | A8 |"^#" G4 A2 B2 | c2 A2 B4- | B4 !fermata!A4 |] %60
w: * ce,|ov' è|l'e- ter-|na|lu- *||* ce, l'e-|ter- na lu-|* ce.|
V:2
 z8 | z8 | A8 | F4 D4 | F6 G2 | A4 B4 | A2 G2 F2 E2 | D4 d4- | d2 cB c4 | d4 G4 | A4 A4 | D4 E4 | %12
w: ||Da|quel fo-|co ch'ac-|cen- *||||de, in|ciel le|pi- re-|
 F4 A4- | A4 G4 | A8 | z4 B4 | c4 A4 | c4 d4 | e2 d2 c2 B2 | A2 G2 F4 | E8 | z4 A4 | A4 G4 | F8 | %24
w: men- *||ti,|u-|na di-|vi- na|fiam- * * *||ma,|in|noi di-|scen-|
 E8 | z4 A4 | c4 B4 | A2 D2 F4 | E2 A2 ^G4 | A4 z2 A2 | c2 c2 B4 | A4 D4 | E2 C2 D2 E2 | F3 G A4 | %34
w: de,|ch'i|cor ge-|la- ti'e spen-|ti, in- cen-|de or-|na'e ris- chie-|ran per|cui si- cu- ra'e|chia- * *|
 G4 B4 | A2 A2 c4 | B4 d4 | c3 d e4 | d4 z2 G2 | A2 A2 E3 F | G4 D2 d2 | c2 A2 c4 | B2 G2 A2 D2 | %43
w: ra, ap-|par la vi-|a ch'ad-|du- * *|ce, con|som- ma gio- *|* ia, con|som- ma gio-|ia, con som- ma|
 F4 E4 | z4 A4 | A4 B4 | c2 A2 e3 d/c/ | d4 e4 | c4 A4 | B4 c2 B2 | A2 G2 F2 E2 | D4 C4 | c6 BA | %53
w: gio- ia,|ov'|è l'e-|ter- na lu- * *|* ce,|ov' è|l'e- ter- *||* na,|lu- * *|
 B4 c4 | A4 A4 | G4 A4 | c8 | B4 A4- |"^#" A4 G4- | G4 !fermata!A4 |] %60
w: * ce,|ov' è|l'e- ter-|na|lu- *||* ce.|

